lite/images/sprite/ico-base/ico-zoom.svg

<?xml version="1.0" encoding="utf-8"?>
<!DOCTYPE svg PUBLIC "-//W3C//DTD SVG 1.1//EN" "http://www.w3.org/Graphics/SVG/1.1/DTD/svg11.dtd">
<svg version="1.1" baseProfile="full"
 xmlns="http://www.w3.org/2000/svg"
 xmlns:xlink="http://www.w3.org/1999/xlink"
 xmlns:ev="http://www.w3.org/2001/xml-events" 
  height="99px" 
  width="99px" 
> 
<path fill="rgb( 255, 255, 255 )"
 d="M84.326,84.4160000000001 C75.4649999999999,93.277 63.223,98.759 49.704,98.759 C36.1859999999999,98.759 23.9449999999999,93.277 15.0830000000001,84.4160000000001 C6.22199999999998,75.555 0.74000000000001,63.313 0.74000000000001,49.795 C0.74000000000001,36.276 6.22199999999998,24.035 15.0830000000001,15.174 C23.9449999999999,6.31299999999999 36.1859999999999,0.83100000000002 49.704,0.83100000000002 C63.223,0.83100000000002 75.4649999999999,6.31299999999999 84.326,15.174 C93.1869999999999,24.035 98.6690000000001,36.276 98.6690000000001,49.795 C98.6690000000001,63.313 93.1869999999999,75.555 84.326,84.4160000000001 ZM76.579,22.921 C69.7,16.043 60.1980000000001,11.788 49.704,11.788 C39.211,11.788 29.7090000000001,16.043 22.8299999999999,22.921 C15.952,29.8 11.6969999999999,39.301 11.6969999999999,49.795 C11.6969999999999,60.288 15.952,69.79 22.8299999999999,76.669 C29.7090000000001,83.547 39.211,87.802 49.704,87.802 C60.1980000000001,87.802 69.7,83.547 76.579,76.669 C83.4570000000001,69.79 87.712,60.288 87.712,49.795 C87.712,39.301 83.4570000000001,29.8 76.579,22.921 ZM67.6579999999999,55.085 C67.6579999999999,55.085 55.3099999999999,55.085 55.3099999999999,55.085 C55.3099999999999,55.085 55.3099999999999,67.938 55.3099999999999,67.938 C55.3099999999999,70.884 52.9010000000001,73.294 49.9549999999999,73.294 C49.9549999999999,73.294 49.154,73.294 49.154,73.294 C46.2080000000001,73.294 43.799,70.884 43.799,67.938 C43.799,67.938 43.799,55.085 43.799,55.085 C43.799,55.085 30.9860000000001,55.085 30.9860000000001,55.085 C28.04,55.085 25.6300000000001,53.0650000000001 25.6300000000001,50.119 C25.6300000000001,50.119 25.6300000000001,49.318 25.6300000000001,49.318 C25.6300000000001,46.372 28.04,43.963 30.9860000000001,43.963 C30.9860000000001,43.963 43.799,43.963 43.799,43.963 C43.799,43.963 43.799,31.266 43.799,31.266 C43.799,28.3200000000001 46.2080000000001,25.91 49.154,25.91 C49.154,25.91 49.9549999999999,25.91 49.9549999999999,25.91 C52.9010000000001,25.91 55.3099999999999,28.3200000000001 55.3099999999999,31.266 C55.3099999999999,31.266 55.3099999999999,43.963 55.3099999999999,43.963 C55.3099999999999,43.963 67.6579999999999,43.963 67.6579999999999,43.963 C70.604,43.963 73.0129999999999,46.372 73.0129999999999,49.318 C73.0129999999999,49.318 73.0129999999999,50.119 73.0129999999999,50.119 C73.0129999999999,53.0650000000001 70.604,55.085 67.6579999999999,55.085 Z "/>
</svg>

<?xml version="1.0" encoding="utf-8"?><svg baseProfile="full" xmlns="http://www.w3.org/2000/svg" height="99" width="99"><path fill="rgb( 255, 255, 255 )" d="M84.326 84.416c-8.86 8.86-21.103 14.343-34.622 14.343-13.518 0-25.76-5.484-34.62-14.345C6.22 75.555.74 63.313.74 49.795c0-13.52 5.482-25.76 14.343-34.62C23.945 6.314 36.186.83 49.703.83c13.52 0 25.762 5.483 34.623 14.344 8.86 8.86 14.343 21.102 14.343 34.62 0 13.52-5.484 25.76-14.345 34.622zM76.58 22.92c-6.88-6.876-16.383-11.13-26.877-11.13-10.493 0-19.995 4.255-26.874 11.133-6.88 6.88-11.134 16.38-11.134 26.875 0 10.493 4.255 19.995 11.133 26.874C29.71 83.546 39.21 87.8 49.703 87.8S69.7 83.547 76.58 76.67c6.877-6.88 11.132-16.382 11.132-26.875 0-10.494-4.255-19.995-11.133-26.874zm-8.922 32.165s-12.348 0-12.348 0 0 12.853 0 12.853c0 2.946-2.41 5.356-5.355 5.356 0 0-.8 0-.8 0-2.947 0-5.356-2.41-5.356-5.356 0 0 0-12.853 0-12.853s-12.815 0-12.815 0c-2.946 0-5.356-2.02-5.356-4.966 0 0 0-.803 0-.803 0-2.946 2.41-5.355 5.355-5.355 0 0 12.813 0 12.813 0s0-12.697 0-12.697c0-2.946 2.408-5.356 5.354-5.356 0 0 .8 0 .8 0 2.947 0 5.356 2.41 5.356 5.355 0 0 0 12.697 0 12.697s12.348 0 12.348 0c2.946 0 5.355 2.41 5.355 5.355 0 0 0 .8 0 .8 0 2.947-2.41 4.967-5.354 4.967z"/></svg>
